svg/material-icons/people_alt/materialiconstwotone/24px.svg

<svg xmlns="http://www.w3.org/2000/svg" width="24" height="24" viewBox="0 0 24 24"><circle cx="9" cy="8" r="2" opacity=".3"/><path d="M9 15c-2.7 0-5.8 1.29-6 2.01V18h12v-1c-.2-.71-3.3-2-6-2z" opacity=".3"/><path d="M16.67 13.13C18.04 14.06 19 15.32 19 17v3h4v-3c0-2.18-3.57-3.47-6.33-3.87zM15 12c2.21 0 4-1.79 4-4s-1.79-4-4-4c-.47 0-.91.1-1.33.24a5.98 5.98 0 0 1 0 7.52c.42.14.86.24 1.33.24zm-6 0c2.21 0 4-1.79 4-4s-1.79-4-4-4-4 1.79-4 4 1.79 4 4 4zm0-6c1.1 0 2 .9 2 2s-.9 2-2 2-2-.9-2-2 .9-2 2-2zm0 7c-2.67 0-8 1.34-8 4v3h16v-3c0-2.66-5.33-4-8-4zm6 5H3v-.99C3.2 16.29 6.3 15 9 15s5.8 1.29 6 2v1z"/></svg>

<svg xmlns="http://www.w3.org/2000/svg" enable-background="new 0 0 24 24" height="24" viewBox="0 0 24 24" width="24"><g><rect fill="none" height="24" width="24"/></g><g><g/><g><circle cx="9" cy="8" opacity=".3" r="2"/><path d="M9,15c-2.7,0-5.8,1.29-6,2.01L3,18h12v-1C14.8,16.29,11.7,15,9,15z" opacity=".3"/><path d="M16.67,13.13C18.04,14.06,19,15.32,19,17v3h4v-3C23,14.82,19.43,13.53,16.67,13.13z"/><path d="M15,12c2.21,0,4-1.79,4-4c0-2.21-1.79-4-4-4c-0.47,0-0.91,0.1-1.33,0.24C14.5,5.27,15,6.58,15,8s-0.5,2.73-1.33,3.76 C14.09,11.9,14.53,12,15,12z"/><path d="M9,12c2.21,0,4-1.79,4-4c0-2.21-1.79-4-4-4S5,5.79,5,8C5,10.21,6.79,12,9,12z M9,6c1.1,0,2,0.9,2,2c0,1.1-0.9,2-2,2 S7,9.1,7,8C7,6.9,7.9,6,9,6z"/><path d="M9,13c-2.67,0-8,1.34-8,4v3h16v-3C17,14.34,11.67,13,9,13z M15,18H3l0-0.99C3.2,16.29,6.3,15,9,15s5.8,1.29,6,2V18z"/></g></g></svg>
